X: 1
T:The Miller's Maid
M:C|
L:1/8
R:reel
B:Ryan's Mammoth Collection
Z:Contributed by Ray Davies,  ray:davies99.freeserve.co.uk
K:D
vdB"Segno"|:A2FA B2GB|A2FA GEE2|A2FA Bdce|dABG FAdB|
A2FA B2GB|A2FA GEE2|A2FA (Bd)ce|dABG FDD2H::
dAFA d2fa|gfed cee2|dAFA Bdce|dABG FDD2|
dAFA d2fa|gfed cee2|d2cd B2A2|Bdeg fddB"Segno":|
